X: 1
T: Indian Ate The Woodchuck
M: 4/4
L: 1/8
R: barndance
K: Gmaj
|: A,2D2 DEFG | AB (3cBA G2FG | A2D2 DE=FD | EDCB, A,B,CB,|A,2D2 DEFG |
AB (3cBA G2 FG |1 AGAB cBAG | F2D2 D2CB,:|2 Adde d^cAG | F2D2 D2AB||
|: c2cd c2Ac |ddcA G2FG | A2D2 DE=FD | EDA,B, C2AB |c2cd c2Ac |
ddcA G2FG |1 AGAB cBAG | F2D2 D2AB:|2 Adde d^cAG | F2D2 D4||
